X:11
T:Foxhunter's
Z: id:dc-slipjig-10
M:9/8
L:1/8
K:D Major
FGF F2D G2E|FGF F2D E2D|FGF F2D G2B|AFD D2F E2D:|!
BcB BAG FGA|B2E E2F G2B|ABc dcB ABc|d2D D2F E2D:|!
fgf f2d g2e|fgf f2d e2d|fgf f2d g2b|afd d2f e2d:|!
gfe dcB AGA|B2E E2F G2B|ABc dcB ABc|d2D D2F E2D:|!

